X:1
T:De la Speranza
T:Luca Marenzio
T:Source : Il terzo libro delle Villanelle a tre voci---Venetia---G.Vincenzi---1587. Editor :  André Vierendeels (31/05/17).
T:Notes : Original clefs : C1, C2, F4 Editorial accidentals above the staff m 9 in S 2 : second "F sharp" notated as quarter in original print S 2 notated in C1 in original print 
T:De la Speranza
T:©
T:©
C:Luca Marenzio
Z:©
%%score [ 1 2 3 ]
L:1/8
Q:1/4=120
M:4/4
K:C
V:1 treble nm="Soprano 1" snm="S 1"
V:2 treble nm="Soprano 2" snm="S 2"
V:3 bass nm="Bass" snm="B"
V:1
"^1)" G8 | G4 G2 A2- | A2 A2 B4- | B2 c2 c2 d2 | e4 e4 | c4 c2 c2 | c6 d2 | B3 A B2 c2 | A4 A4 :: %9
w: De|la Spe- ran-|* za'ond' io|_ nu- dris- co'il|co- re|spes- so mi|pri- va|la mia don- n'A-|mo- re,|
w: Que-|sta Spe- ran-|* za'el- la|_ tor- nar mi|suo- le,|quan- do m'ap-|par piu|va- g'as- sai del|So- le,|
 B2 B4 A2 | G2 F2 G4- | G4 G2 e2 | dcBA G4 | G2 e2 dcBA | G4 G4 | z2 F2 FGAB | c4 B4 | z2 G2 GABc | %18
w: con li sde-|gno- si sguar-|* di, ch'a-|ven- tan fiam- m'e dar-|di, ch'a- ven- tan fiam- m'e|dar- di,|ch'a- ven- tan fiam- m'e|dar- di,|ch'a- ven- tan fiam- m'e|
w: ma me la|to- glie po-|* i, ce-|lan- do gli'oc- chi suo-|i, ce- lan- do gli'oc- chi|suo- i,|ce- lan- do gli'oc- chi|suo- i,|ce- lan- do gli'oc- chi|
 d3 c/B/ A4 | G8 :| %20
w: dar- * * *|di|
w: suo- * * *|i.|
V:2
"^2)""^1)" D8 | E4 G2 ^F2- | F2 ^F2 G4- | G2 G2 A2 B2 | c4 c4 | A4 A2 A2 | A6 A2 | G3 ^F G2 G2 | %8
w: De|la Spe- ran-|* za'ond' io|_ nu- dris- co'il|co- re|spes- so mi|pri- va|la mia don- n'A-|
w: Las-|so, se mi-|* ra le|_ cam- pa- gne'in-|tor- no,|ri- don li|pra- ti'e|vien piu chia- ro'il|
 ^F4 F4 :: G2 G4 C2 | C2 D2 E4- | E4 E3 F | G4 z2 E2 | DDEF G4 | E4 z2 E2 | FGAB c2 F2 | %16
w: mo- re,|con li sde-|gno- si sguar-||di, ch'a-|ven- tan fiam- m'e dar-|di, ch'a-|ven- tan fiam'e _ dar- di|
w: gior- no,|so- lo'io non|ri- di e|_ vi- *|vo, de|la Spe- ran- za pri-|vo, de|la Spe- ran- za pri- vo,|
 z2 G2 GABc | d3 c B3 A/G/ | ^F2 G4 F2 | G8 :| %20
w: ch'a- ven- tan fiam- m'e|dar- * * * *||di.|
w: de la Spe- ran- za|pri- * * * *||vo.|
V:3
"^3)""^1)""^4)" G,8 | C,4 E,2 D,2- | D,2 D,2 G,4- |"^-natural" G,2 E,2 F,2 G,2 | C,4 C,4 | %5
w: De|la Spe- ran-|* za'ond' io|_ nu- tris- co'il|co- re|
w: Il|tem- po'al fi-|* ne'io di-|* co'à po- co'à|po- co|
 F,4 F,2 F,2 | F,4 F,4 | E,3 D, E,2 E,2 | D,4 D,4 :: G,2 G,4 F,2 | E,2 D,2 C,4- | C,4 C,4 | %12
w: spes- so mi|pri- va|la mia don- n'A-|mo- re,|con li sde-|gno- si sguar-|* di|
w: tor- r'à me'il|duol mio|co- r'ed à vo'il|fo- co;|et ei ri-|spon- d'e stri-|* de,|
 G,,4 C,D,E,F, | G,2 C,2 z2 G,,2 | C,D,E,F, G,2 C,2 | F,4 F,4- | F,2 E,2 G,4- | G,4 E,4 | D,8 | %19
w: ch'a- ven- tan fiam- m'e|dar- di, ch'a|ven- tan fiam- m'e dar- di,|ch'a- ven-|* tan fiam-|* m'e|dar-|
w: la Spe- ran- za m'an-|ci- de, la|Spe- ran- za m'an- ci- de,|la Spe-|* ran- za|_ m(an-|ci-|
 G,,8 :| %20
w: di.|
w: de.|

